X:1
T:Title
%%score { ( 1 3 6 7 ) | ( 2 4 5 ) }
L:1/8
M:4/4
K:C
V:1 treble nm="Grand Piano"
V:3 treble 
V:6 treble 
V:7 treble 
V:2 bass 
V:4 bass 
V:5 bass 
V:1
 z4 z2[Q:1/4=100] [CE]>[DF] | [EG]>[FA] [EG]>[_E^F] [=EG]>[Ac] [GB]>[=FA] | %2
[M:3/4] [FA]2 [EG]2 [EG]2 |[M:1/4] [EG]>[EG] |[M:4/4] B>_B =B>c d>G A>[FB] | %5
[M:3/4] [Ec]2 [Ge]2 d2 |[M:1/4] E>F |[M:4/4] [EG]>[FA] [EG]>[_E^F] [=EG]>[Gc] [GB]>A | %8
[M:3/4] A2 G2 G2 |[M:1/4] [EG]>[EG] |[M:4/4] [FA]>[GB] [Ac]>[FA] [EG]>[FA] [CEG]>[A,DF] | %11
[M:3/4] [CE]2[K:bass] [F,B,D]2 [E,C]2 |[M:1/4][K:treble] [CEG]>[G,CE] |[M:4/4] G6 z2 | %14
[M:3/4] c->[Ec-] [Fc-]>[Fc-] [Ec]2 |[M:1/4] (3[EG]^F[CEG] |[M:4/4] A6 z2 | [CEG]6 [G,CE]>[G,CE] | %18
 [B,DF]4- [B,DF]>[B,EG] [DFA]>[B,DF] | [G,CE]4 [G,DG]2 [Ec]>[Ec] | B6 z2 | %21
[M:39/32] G/4-G/4-G/4-G/4-G/4-G/4-G/4-G/4-G/4-G/4-G/4-G/4-G/4-G/4-G/4-G/4-G/4-G/4-G/4-G/4-G/4-G/4-G/4-G/4-G/-<G/ z/4 z/4 z/4 z/4 z/4 z/4 z/4 z/4 z/4 z/ | %22
[M:4/4] (5:4:5[DF]2 E/ [DF]/-[DF]3/2A/ z2 (3:2:2[Ec]2 c | %23
 (7:8:7[DB]3/2._B/[D=B].d/ [Ec]3/2[CFG][_B,CG] | %24
 (9:8:7[A,FA]2 [Af]3/2d c/-c3/2[DB-]3/2[FB][Q:1/4=98][Q:1/4=97][Q:1/4=95][Q:1/4=94][Q:1/4=92][Q:1/4=91][Q:1/4=89][Q:1/4=88][Q:1/4=86][Q:1/4=84][Q:1/4=83][Q:1/4=81][Q:1/4=80][Q:1/4=78][Q:1/4=77] | %25
[M:7/8] c-c-c- c- c3 |] %26
V:2
 z4 z2 [C,G,]>[C,G,] | [C,C]>[C,C] [C,C]>[C,C] [C,C]>[C,C] [C,C]>[C,C] | %2
[M:3/4] [C,C]2 [C,C]2 [C,C]2 |[M:1/4] [C,G,]>[C,G,] | %4
[M:4/4][K:treble] [G,D]>[G,^C] [G,D]>[G,=CE] [G,B,F]>[K:bass][F,B,] [E,CE]>[D,G,] | %5
[M:3/4] [C,G,]2 [C,C]2[K:treble] [G,B,G]2 |[M:1/4] [G,C]>[K:bass][G,D] | %7
[M:4/4] [C,G,]>[C,C] [C,C]>[C,C] [C,C]>[E,C] [F,C]>[K:treble][A,CF] |[M:3/4] [CF]2 [CE]2 [CE]2 | %9
[M:1/4][K:bass] [C,C]>[C,C] |[M:4/4] [F,C]>[F,B,] [F,A,]>[F,C] [C,C]>[C,C] E,>F, | %11
[M:3/4] G,2 G,,2 C,2 |[M:1/4] C,>C, |[M:4/4] C,>C, B,,>B,, z z/ E/ G,>[G,B,] | %14
[M:3/4] [C,C]>[C,G,] [C,A,]>[C,A,] [C,G,]2 |[M:1/4] (3[C,C]-[C,C_E]C, | %16
[M:4/4] F,>F, F,>F, z z/ C/ (3F,,-[F,,G]A,, | C,>C, C,>C, C,2 C,>C, | %18
 G,,>G,, G,,>G,, G,,>G,, G,,>G,, | C,>C, C,>C, B,,>B,, [A,,G,]>[A,,G,] | %20
 G,->[D,G,-] [D,G,-]>[D,G,] D>[K:treble][B,G] (3[D,A,]-[D,A,c][K:bass]D, | %21
[M:39/32] z/4 z/4 z/4 z/4 z/4 z/4 z/4 z/4 z/4 z/4 z/4 z/4 z/4 z/4 z/4 z/4 z/4 z/4 z/4 z/4 z/4 z/4 z/4 z/4 z/4 z/4 z/ C/4-C/4-C/4-C/4-C/4-C/4-C/-<C/ z/4 | %22
[M:4/4] (5:4:5G,,2 ^C/ B,,/-B,,3/2F/ z2 (3:2:2z2[K:treble] E | %23
 (7:8:7G,3/2.^C/^G,.F/[K:bass] A,3/2E,E, | z8 |[M:7/8] z2 A,- A,/4 z/4 z/ z z2 |] %26
V:3
 x8 | x8 |[M:3/4] x6 |[M:1/4] x2 |[M:4/4] x8 |[M:3/4] x6 |[M:1/4] x2 |[M:4/4] x8 |[M:3/4] x6 | %9
[M:1/4] x2 |[M:4/4] x8 |[M:3/4] x2[K:bass] x4 |[M:1/4][K:treble] x2 | %13
[M:4/4] [CE]2 [DF]2 [CE]>[Gc] [DFB]>[Fd] |[M:3/4] E2 z2 z2 |[M:1/4] x2 | %16
[M:4/4] [CF]2 [CF]2 [CF]>[GB] (3[C-Ac][CB][CFA] | x8 | x8 | x8 | z z/ D/ D>D G>d (3[^F-d]F[CFA] | %21
[M:39/32] [B,D]/4-[B,D]/4-[B,D]/4-[B,D]/4-[B,D]/-<[B,D]/[CE]/4-[CE]/4-[CE]/4-[CE]/4-[CE]/-<[CE]/[DF]/4-[DF]/4-[DF]/4-[DF]/4-[DF]/4-[DF]/4-[DF]/4-[DF]/4-[DF]/-<[DF]/E/4-E/4-E/4-E/4-E/-<E/[CE]3/4 | %22
[M:4/4] z4 [EG]2- [EG]/4 z/4 z/ z | x511/64 | x8 |[M:7/8] z2 F- F/4 z/4 z/ z z2 |] %26
V:4
 x8 | x8 |[M:3/4] x6 |[M:1/4] x2 |[M:4/4][K:treble] x11/2[K:bass] x5/2 |[M:3/4] x4[K:treble] x2 | %6
[M:1/4] x3/2[K:bass] x/ |[M:4/4] x15/2[K:treble] x/ |[M:3/4] x6 |[M:1/4][K:bass] x2 |[M:4/4] x8 | %11
[M:3/4] x6 |[M:1/4] x2 |[M:4/4] z4 C,2 z2 |[M:3/4] x6 |[M:1/4] x2 |[M:4/4] z4 F,2 z2 | x8 | x8 | %19
 x8 | [D,D]2 z2 D,2[K:treble] z2[K:bass] | %21
[M:39/32] G,/4-G,/4-G,/-<G,/G,/G,/4-G,/4-G,/-<G,/G,/ z/4 z/4 z/4 z/4 z/4 z/4 z/4 z/4 z/4 z/4 z/4 z/4 z/4 z/4 z/4 z/4 z/4 z/4 z/ G,3/4 | %22
[M:4/4] z4 z2 E,2[K:treble] | x4[K:bass] x4 | %24
 (5:4:4F,2- F,/ [D,A,][F,A,F]3/2 E2- [G,,-E]/<G,,/-G,,- |[M:7/8] [G,,C,-]/>C,/- C,3- [C,=G,]3 |] %26
V:5
 x8 | x8 |[M:3/4] x6 |[M:1/4] x2 |[M:4/4][K:treble] x11/2[K:bass] x5/2 |[M:3/4] x4[K:treble] x2 | %6
[M:1/4] x3/2[K:bass] x/ |[M:4/4] x15/2[K:treble] x/ |[M:3/4] x6 |[M:1/4][K:bass] x2 |[M:4/4] x8 | %11
[M:3/4] x6 |[M:1/4] x2 |[M:4/4] x8 |[M:3/4] x6 |[M:1/4] x2 |[M:4/4] x8 | x8 | x8 | x8 | %20
 x11/2[K:treble] x11/6[K:bass] x2/3 | %21
[M:39/32] z/4 z/4 z/4 z/4 z/4 z/4 z/4 z/4 z/4 z/4 z/4 z/4 z/4 z/4 z/ G,/4-G,/4-G,/4-G,/4-G,/4-G,/4-G,/4-G,/4-G,/4-G,/4-G,/4-G,/4-G,/4-G,/4-G,/4-G,/4-G,/-<G,/ z/4 z/ | %22
[M:4/4] z4 C,2- C,/4 z/4 z/ z[K:treble] | x4[K:bass] x4 | z4 G,2 G,2 | %25
[M:7/8] G,2- G,/4 z/4 z/ ^G,-G,/4 z/4 z/ z2 |] %26
V:6
 x8 | x8 |[M:3/4] x6 |[M:1/4] x2 |[M:4/4] x8 |[M:3/4] x6 |[M:1/4] x2 |[M:4/4] x8 |[M:3/4] x6 | %9
[M:1/4] x2 |[M:4/4] x8 |[M:3/4] x2[K:bass] x4 |[M:1/4][K:treble] x2 |[M:4/4] x8 |[M:3/4] x6 | %15
[M:1/4] x2 |[M:4/4] x8 | x8 | x8 | x8 | x8 |[M:39/32] x39/4 |[M:4/4] x8 | x511/64 | x8 | %25
[M:7/8] E2- E/4 z/4 z/ z E3 |] %26
V:7
 x8 | x8 |[M:3/4] x6 |[M:1/4] x2 |[M:4/4] x8 |[M:3/4] x6 |[M:1/4] x2 |[M:4/4] x8 |[M:3/4] x6 | %9
[M:1/4] x2 |[M:4/4] x8 |[M:3/4] x2[K:bass] x4 |[M:1/4][K:treble] x2 |[M:4/4] x8 |[M:3/4] x6 | %15
[M:1/4] x2 |[M:4/4] x8 | x8 | x8 | x8 | x8 |[M:39/32] x39/4 |[M:4/4] x8 | x511/64 | x8 | %25
[M:7/8] z z2 D-D/4 z/4 z/ z2 |] %26

